X: 22
T: Second thoughts are Best
%C: Mr. Gray
%R: reel
B: Mr. Gray "24 Country Dances for the Year 1803" p.11 #2
S: http://imslp.org/wiki/24_Country_Dances_for_the_Year_1803_(Various)  2013-12-2
Z: 2013 John Chambers <jc:trillian.mit.edu>
M: 2/4
L: 1/16
K: G
|:\
gdBd cdAd | BdGB AFED |\
gdBd gece | dcBA G2G2 :|
|:\
FADc BdGd | ecAG FDD2 |\
FADc Bdge | dBAB G2G2 :|
% - - - - - - - - - - - - - - - - - - - - - - - - -
%%begintext align
%% Change Sides, back again, hands across back
%% again, lead down the, middle, up again, &
%% Allemand
%%endtext

%%sep 1 1 500
%%sep 1 1 500
